packages/tokens/icons/salesforceCrmRequest/size16Px.svg

<svg viewBox="0 0 16 16" fill="none" xmlns="http://www.w3.org/2000/svg" width="1em" height="1em"><path d="M6.42486 4.39012L6.78101 4.86892L7.19008 4.43446C7.55461 4.0473 8.05403 3.81219 8.60035 3.81219C9.32863 3.81219 9.97139 4.2239 10.3234 4.8609L10.5473 5.26611L10.9685 5.074C11.2871 4.92869 11.6317 4.85385 11.98 4.85403H11.9802C13.3577 4.85403 14.5 6.00763 14.5 7.46118C14.5 8.91473 13.3577 10.0683 11.9802 10.0683C11.811 10.0683 11.6458 10.051 11.4829 10.018L11.1226 9.94482L10.9454 10.267C10.6492 10.8056 10.0882 11.1627 9.45947 11.1627L9.45846 11.1627C9.20129 11.1632 8.94703 11.1037 8.71504 10.9883L8.23664 10.7503L8.03088 11.2434C7.72048 11.9873 7.00249 12.5 6.17734 12.5C5.31455 12.5 4.5738 11.9455 4.28625 11.1504L4.13772 10.7397L3.7108 10.8317C3.58748 10.8582 3.46182 10.8715 3.33587 10.8715H3.33556C2.33549 10.8715 1.5 10.0294 1.5 8.96238C1.5 8.24914 1.87517 7.63316 2.42563 7.30183L2.79805 7.07767L2.62787 6.67769C2.50637 6.39213 2.44368 6.08371 2.444 5.77176V5.77125C2.444 4.50655 3.44755 3.5 4.66539 3.5C5.37939 3.5 6.0207 3.84677 6.42486 4.39012Z" stroke="currentColor"/><path d="M6.10364 8.504L5.94164 8.126C5.82764 8.243 5.64164 8.345 5.38364 8.345C5.04464 8.345 4.76264 8.114 4.76264 7.709C4.76264 7.304 5.03264 7.07 5.38364 7.07C5.65664 7.07 5.87864 7.235 5.91764 7.286L6.06764 6.884C6.01364 6.827 5.78264 6.65 5.35664 6.65C4.75364 6.65 4.27064 7.049 4.27064 7.718C4.27064 8.384 4.74764 8.786 5.35664 8.786C5.77964 8.786 5.99864 8.612 6.10364 8.504ZM8.08481 8.75L7.55981 7.895C7.71281 7.847 7.96481 7.694 7.96481 7.301C7.96481 7.094 7.87481 6.929 7.73681 6.827C7.60181 6.728 7.42181 6.68 7.19081 6.68H6.44681V8.75H6.93281V7.958H7.08581L7.52081 8.75H8.08481ZM7.47581 7.319C7.47581 7.427 7.43381 7.484 7.37081 7.529C7.31081 7.574 7.23281 7.586 7.12181 7.586H6.92981V7.055H7.12181C7.23281 7.055 7.31081 7.064 7.37081 7.109C7.43381 7.154 7.47581 7.214 7.47581 7.319ZM10.7023 8.75L10.5493 6.68H9.93429L9.50829 8.042H9.50229L9.07029 6.68H8.45829L8.30229 8.75H8.77929L8.85429 7.34H8.86329L9.31029 8.75H9.69429L10.1383 7.34H10.1443L10.2253 8.75H10.7023Z" fill="currentColor"/></svg>

<svg xmlns="http://www.w3.org/2000/svg" fill="none" viewBox="0 0 16 16" width="1em" height="1em"><path stroke="currentColor" d="m6.425 4.39.356.479.41-.435a1.932 1.932 0 0 1 1.41-.622c.728 0 1.37.412 1.722 1.049l.224.405.421-.192a2.45 2.45 0 0 1 1.012-.22c1.378 0 2.52 1.154 2.52 2.607 0 1.454-1.142 2.607-2.52 2.607-.169 0-.334-.017-.497-.05l-.36-.073-.178.322a1.704 1.704 0 0 1-1.486.896c-.258 0-.512-.06-.744-.175l-.478-.238-.206.493A2.017 2.017 0 0 1 6.177 12.5a2.017 2.017 0 0 1-1.89-1.35l-.15-.41-.426.092c-.124.026-.25.04-.375.04-1 0-1.836-.843-1.836-1.91 0-.713.375-1.329.926-1.66l.372-.224-.17-.4a2.309 2.309 0 0 1-.184-.906c0-1.265 1.004-2.272 2.221-2.272.714 0 1.356.347 1.76.89Z"/><path fill="currentColor" d="m6.104 8.504-.162-.378a.763.763 0 0 1-.558.219c-.34 0-.621-.231-.621-.636s.27-.639.62-.639c.274 0 .496.165.535.216l.15-.402c-.054-.057-.285-.234-.711-.234-.603 0-1.086.399-1.086 1.068 0 .666.477 1.068 1.086 1.068.423 0 .642-.174.747-.282Zm1.98.246-.524-.855c.153-.048.405-.201.405-.594a.574.574 0 0 0-.228-.474c-.135-.099-.315-.147-.546-.147h-.744v2.07h.486v-.792h.153l.435.792h.564Zm-.608-1.431a.232.232 0 0 1-.105.21c-.06.045-.138.057-.25.057H6.93v-.531h.192c.11 0 .189.009.249.054a.235.235 0 0 1 .105.21Zm3.226 1.431-.153-2.07h-.615l-.426 1.362h-.006L9.07 6.68h-.612l-.156 2.07h.477l.075-1.41h.01l.446 1.41h.384l.444-1.41h.006l.081 1.41h.477Z"/></svg>
